server/website/public/icons/base/secret.svg

<svg width="48" height="48" viewBox="0 0 48 48" fill="none" xmlns="http://www.w3.org/2000/svg">
<g clip-path="url(#clip0_1398_24792)">
<path d="M42.7927 5.21477C39.969 2.38755 36.2748 0.594034 32.3064 0.123638C28.3379 -0.346757 24.3267 0.533409 20.92 2.6221C17.5133 4.7108 14.9099 7.88619 13.5297 11.6359C12.1496 15.3855 12.0733 19.4908 13.3132 23.2891L1.04223 35.5579C0.710629 35.8868 0.447731 36.2783 0.268813 36.7097C0.0898944 37.1411 -0.00147429 37.6038 1.79884e-05 38.0708V44.4451C1.79884e-05 45.3879 0.374615 46.2921 1.0414 46.9588C1.70819 47.6255 2.61254 48 3.55552 48H10.6665C11.138 48 11.5902 47.8127 11.9236 47.4794C12.257 47.1461 12.4443 46.694 12.4443 46.2226V42.6677H15.9998C16.4713 42.6677 16.9235 42.4804 17.2569 42.1471C17.5902 41.8137 17.7775 41.3616 17.7775 40.8902V37.3354H21.333C21.5666 37.3355 21.7978 37.2897 22.0137 37.2005C22.2295 37.1113 22.4256 36.9805 22.5908 36.8155L24.7152 34.6892C26.4934 35.2676 28.3519 35.5608 30.2218 35.5579H30.244C33.7583 35.5537 37.1925 34.5081 40.1127 32.5533C43.0329 30.5986 45.3081 27.8223 46.651 24.5753C47.9938 21.3283 48.344 17.7562 47.6573 14.3103C46.9706 10.8643 45.2778 7.69923 42.7927 5.21477ZM34.6662 16.8948C33.963 16.8948 33.2756 16.6863 32.6909 16.2957C32.1062 15.9051 31.6504 15.3499 31.3813 14.7003C31.1122 14.0507 31.0418 13.336 31.179 12.6464C31.3162 11.9568 31.6548 11.3234 32.1521 10.8262C32.6493 10.3291 33.2828 9.99049 33.9725 9.85332C34.6622 9.71616 35.3771 9.78656 36.0268 10.0556C36.6765 10.3247 37.2318 10.7803 37.6225 11.3649C38.0132 11.9495 38.2217 12.6368 38.2217 13.3399C38.2217 14.2827 37.8471 15.1869 37.1803 15.8536C36.5135 16.5203 35.6092 16.8948 34.6662 16.8948Z" fill="black"/>
</g>
<defs>
<clipPath id="clip0_1398_24792">
<rect width="48" height="48" fill="white"/>
</clipPath>
</defs>
</svg>

<svg width="48" height="48" fill="none" xmlns="http://www.w3.org/2000/svg"><g clip-path="url(#prefix__clip0_1398_24792)"><path d="M42.793 5.215a17.778 17.778 0 00-29.48 18.074L1.043 35.558A3.523 3.523 0 000 38.07v6.374A3.555 3.555 0 003.556 48h7.11a1.778 1.778 0 001.778-1.777v-3.555H16a1.778 1.778 0 001.777-1.778v-3.555h3.556a1.78 1.78 0 001.258-.52l2.124-2.126c1.778.579 3.637.872 5.507.869h.022a17.779 17.779 0 0016.407-10.983 17.772 17.772 0 00-3.858-19.36zm-8.127 11.68a3.556 3.556 0 110-7.112 3.556 3.556 0 010 7.112z" fill="#000"/></g><defs><clipPath id="prefix__clip0_1398_24792"><path fill="#fff" d="M0 0h48v48H0z"/></clipPath></defs></svg>
